src/ad-timeline.svg

<svg xmlns="http://www.w3.org/2000/svg" width="486" height="486" viewBox="0 0 486 486">
    <path d="M30.328 454.886h454.884v30.326H.001V0h30.327 30.324v30.327H30.328v60.651h30.324v30.327H30.328v60.651h30.324v30.327H30.328v60.648h30.324v30.327H30.328v60.648h30.324v30.331H30.328v60.649h0zm90.977-60.649c16.746 0 30.324-13.562 30.324-30.331 0-9.974-5.138-18.411-12.587-23.956l39.238-98.081c1.263.145 2.371.737 3.675.737 3.465 0 6.677-.887 9.787-1.953l28.43 42.615c-4.768 5.357-7.89 12.266-7.89 19.989 0 16.764 13.579 30.327 30.324 30.327s30.326-13.563 30.326-30.327c0-10.604-5.777-19.48-14.024-24.903l42.363-127.136c.686.056 1.274.411 1.983.411 5.601 0 10.548-1.923 15.047-4.56l50.171 50.169c-2.637 4.501-4.564 9.443-4.564 15.044 0 16.762 13.562 30.324 30.327 30.324 16.759 0 30.326-13.562 30.326-30.324 0-10.604-5.772-19.487-14.034-24.936l42.378-127.11c.677.061 1.273.416 1.983.416a30.31 30.31 0 0 0 30.322-30.324C485.212 13.567 471.648 0 454.89 0c-16.765 0-30.327 13.567-30.327 30.327 0 10.601 5.773 19.485 14.039 24.936l-42.387 127.108c-.677-.061-1.27-.416-1.979-.416-5.597 0-10.543 1.925-15.047 4.562l-50.162-50.168c2.633-4.504 4.56-9.446 4.56-15.044 0-16.764-13.566-30.327-30.331-30.327-16.76 0-30.322 13.565-30.322 30.327 0 10.602 5.778 19.485 14.039 24.936l-42.396 127.078c-.681-.028-1.274-.388-1.969-.388-3.465 0-6.679.892-9.787 1.988l-28.43-42.675c4.766-5.33 7.893-12.2 7.893-19.961 0-16.764-13.579-30.327-30.327-30.327s-30.327 13.565-30.327 30.327c0 10.009 5.141 18.421 12.587 23.928l-39.241 98.116c-1.257-.145-2.368-.741-3.67-.741-16.748 0-30.327 13.562-30.327 30.321 0 16.767 13.579 30.33 30.326 30.33h0z"/>
</svg>

<?xml version="1.0" encoding="UTF-8" standalone="no"?>
<!--
Icon made by <a href="http://www.simpleicon.com" title="SimpleIcon">SimpleIcon</a> from <a href="http://www.flaticon.com" title="Flaticon">www.flaticon.com</a> is licensed under <a href="http://creativecommons.org/licenses/by/3.0/" title="Creative Commons BY 3.0">CC BY 3.0</a>
-->
<svg width="486px" height="486px" viewBox="0 0 486 486" version="1.1" xmlns="http://www.w3.org/2000/svg" xmlns:xlink="http://www.w3.org/1999/xlink" xmlns:sketch="http://www.bohemiancoding.com/sketch/ns">
    <!-- Generator: Sketch 3.1.1 (8761) - http://www.bohemiancoding.com/sketch -->
    <g id="Page-1" stroke="none" stroke-width="1" fill="none" fill-rule="evenodd" sketch:type="MSPage">
        <g id="ad-timeline" sketch:type="MSLayerGroup" fill="#000000">
            <path d="M30.328,454.886 L485.212,454.886 L485.212,485.212 L0.001,485.212 L0.001,0 L30.328,0 L60.652,0 L60.652,30.327 L30.328,30.327 L30.328,90.978 L60.652,90.978 L60.652,121.305 L30.328,121.305 L30.328,181.956 L60.652,181.956 L60.652,212.283 L30.328,212.283 L30.328,272.931 L60.652,272.931 L60.652,303.258 L30.328,303.258 L30.328,363.906 L60.652,363.906 L60.652,394.237 L30.328,394.237 L30.328,454.886 L30.328,454.886 Z M121.305,394.237 C138.051,394.237 151.629,380.675 151.629,363.906 C151.629,353.932 146.491,345.495 139.042,339.95 L178.28,241.869 C179.543,242.014 180.651,242.606 181.955,242.606 C185.42,242.606 188.632,241.719 191.742,240.653 L220.172,283.268 C215.404,288.625 212.282,295.534 212.282,303.257 C212.282,320.021 225.861,333.584 242.606,333.584 C259.351,333.584 272.932,320.021 272.932,303.257 C272.932,292.653 267.155,283.777 258.908,278.354 L301.271,151.218 C301.957,151.274 302.545,151.629 303.254,151.629 C308.855,151.629 313.802,149.706 318.301,147.069 L368.472,197.238 C365.835,201.739 363.908,206.681 363.908,212.282 C363.908,229.044 377.47,242.606 394.235,242.606 C410.994,242.606 424.561,229.044 424.561,212.282 C424.561,201.678 418.789,192.795 410.527,187.346 L452.905,60.236 C453.582,60.297 454.178,60.652 454.888,60.652 C471.647,60.652 485.21,47.09 485.21,30.328 C485.212,13.567 471.648,0 454.89,0 C438.125,0 424.563,13.567 424.563,30.327 C424.563,40.928 430.336,49.812 438.602,55.263 L396.215,182.371 C395.538,182.31 394.945,181.955 394.236,181.955 C388.639,181.955 383.693,183.88 379.189,186.517 L329.027,136.349 C331.66,131.845 333.587,126.903 333.587,121.305 C333.587,104.541 320.021,90.978 303.256,90.978 C286.496,90.978 272.934,104.543 272.934,121.305 C272.934,131.907 278.712,140.79 286.973,146.241 L244.577,273.319 C243.896,273.291 243.303,272.931 242.608,272.931 C239.143,272.931 235.929,273.823 232.821,274.919 L204.391,232.244 C209.157,226.914 212.284,220.044 212.284,212.283 C212.284,195.519 198.705,181.956 181.957,181.956 C165.209,181.956 151.63,195.521 151.63,212.283 C151.63,222.292 156.771,230.704 164.217,236.211 L124.976,334.327 C123.719,334.182 122.608,333.586 121.306,333.586 C104.558,333.586 90.979,347.148 90.979,363.907 C90.979,380.674 104.558,394.237 121.305,394.237 L121.305,394.237 Z" id="Shape" sketch:type="MSShapeGroup"></path>
        </g>
    </g>
</svg>
